X:1
T:In the Shadow of His Wings
T:In the Shadow of His Wings
T:Edwin Othello Excell 
T:Jonathan Bush Atchinson, 1882
T:Public Domain Courtesy of the Cyber Hymnal™
T:Public Domain Courtesy of the Cyber Hymnal™
C:Edwin Othello Excell
Z:Public Domain
Z:Courtesy of the Cyber Hymnal™
%%score ( 1 2 ) ( 3 4 )
L:1/8
Q:1/4=95
M:4/4
K:F
V:1 treble 
V:2 treble 
V:3 bass 
V:4 bass 
V:1
 [FA][GB] | [Ac][Bd][Ac][GB] [FA]2 [FA][CG] | [CF]2 [CG]2 [CF]2 [CF][CF] | %3
w: 1.~In the|sha- dow of His wings There is|rest, sweet rest; There is|
w: 2.~In the|sha- dow of His wings There is|peace, sweet peace, Peace that|
w: 3.~In the|sha- dow of His wings There is|joy, glad joy, There is|
 [CE][CE][CF][CF] [CG][CG][CF][CE] | [CF][CF][EG][EG] [FA][FA][FA][GB] | %5
w: rest from care and la- bor, There is|rest for friend and neigh- bor; In the|
w: pass- eth un- der- stand- ing, Peace, sweet|peace that knows no end- ing; In the|
w: joy to tell the sto- ry, Joy ex-|ceed- ing, full of glo- ry; In the|
 [Ac][Af][Be][Bd] [Ac]2 F[FG] | [FA]2 [GB]2 [FA]2 [FA][GB] | [Ac][Bd][Ac][GB] [FA]2 [EA][EG] | %8
w: sha- dow of His wings There is|rest, sweet rest, In the|sha- dow of His wings There is|
w: sha- dow of His wings There is|peace, sweet peace, In the|sha- dow of His wings There is|
w: sha- dow of His wings There is|joy, glad joy, In the|sha- dow of His wings There is|
 F6 ||"^Refrain" [FA][FA] | ([GB]2 E2 G2) [FA][GB] | ([Ac]2 E2 F2) [FA][Ac] | f6 [Gc][GB] | %13
w: rest|(sweet rest).|There * * is rest,|There * * is peace,|There is joy,|
w: peace|(sweet peace).||||
w: joy|(glad joy).||||
 [FA][Ac][EG][Ec] F2 [FA][FA] | ([GB]2 E2 G2) [FA][GB] | ([Ac]2 E2 F2) [FA][Ac] | f6 [Gc][GB] | %17
w: In the sha- dow of His wings:|There * * is rest,|There * * is peace,|There is joy,|
w: ||||
w: ||||
 [FA][FA][FA][CG] !fermata![CF]2 |] %18
w: In the sha- dow of|
w: |
w: |
V:2
 x2 | x8 | x8 | x8 | x8 | x6 F x | x8 | x8 | F2 D2 C2 || x2 | x8 | x8 | (A2 A2 B2) x2 | x4 F2 x2 | %14
 x8 | x8 | (A2 A2 B2) x2 | x6 |] %18
V:3
 [F,C][F,C] | [F,C][F,C][F,C][F,C] [C,C]2 [C,C][C,B,] | [F,A,]2 [F,B,]2 [F,A,]2 [F,A,][F,A,] | %3
w: ~ ~|~ ~ ~ ~ ~ ~ ~|~ ~ ~ ~ ~|
 [C,G,][C,G,][C,A,][C,A,] [C,B,][C,B,][C,A,][C,G,] | %4
w: ~ ~ ~ ~ ~ ~ ~ ~|
 [F,A,][F,A,][F,B,][F,B,] [F,C][F,C][F,C][F,C] | [F,C][F,C][C,C][C,C] [F,C]2 [F,A,][F,B,] | %6
w: ~ ~ ~ ~ ~ ~ ~ ~|~ ~ ~ ~ ~ ~ ~|
 [F,C]2 [F,D]2 [F,C]2 [F,C][F,C] | [F,C][F,C][F,C][F,C] [C,C]2 [C,B,][C,B,] | A,2 B,2 A,2 || %9
w: ~ ~ ~ ~ ~|~ ~ ~ ~ ~ ~ ~|~ ~ ~|
 [F,C][F,C] | [C,C]2 [C,G,]2 [C,C]2 [F,C][F,C] | [F,C]2 [G,C]2 [A,C]2 [F,C][F,C] | %12
w: ~ ~|~ sweet rest, ~ ~|~ sweet peace, ~ ~|
 [F,C]2 [F,_E]2 [B,D]2 [B,D][B,D] | CC[C,C][C,B,] [F,A,]2 [F,C][F,C] | %14
w: ~ glad joy, ~ ~|~ ~ ~ ~ ~ ~ ~|
 [C,C]2 [C,G,]2 [C,C]2 [F,C][F,C] | [F,C]2 [G,C]2 [A,C]2 [F,C][F,C] | %16
w: ~ sweet rest, ~ ~|~ sweet peace, ~ ~|
 [F,C]2 [F,_E]2 [B,D]2 [B,D][B,D] | CC[C,C][C,B,] !fermata![F,A,]2 |] %18
w: ~ glad joy, ~ ~|~ ~ ~ ~ *|
V:4
 x2 | x8 | x8 | x8 | x8 | x8 | x8 | x8 | F,6 || x2 | x8 | x8 | x8 | CC x6 | x8 | x8 | x8 | CC x4 |] %18

